X:1
T:Father Kelly's
R:Reel
%%printtempo 0
Q:160
M:C|
K:G
GA|\
"G"B2 GB AGEG|DGGF G2 AB|"Am"c2 AB cBAG|"C"EGAG "D"FDGA|
"G"B2 GB AGEG|DGGF G2 Bc|d2Bd gdBd|"D"cAFA "G" G2:|
|:Bc|\
"G"d2 Bd gdBd|d2Bd gdBd|"Am" e2 ce agfe|"D"defg agfe|
"G"d2 Bd gdBd|d2Bd gdBd|"C"c2dc BAGB|"D"AGEF "G"G2:|
